images/social/behance.svg

<svg height="30" viewBox="0 0 30 30" width="30" xmlns="http://www.w3.org/2000/svg"><g fill="#fff" fill-rule="evenodd"><path d="m15.1358696 18.0542702c0 1.0658438-.4415717 1.9403692-1.3247283 2.6236025-.8831566.6832332-2.1671111 1.0248447-3.85190217 1.0248447h-3.70923913c-.58424205 0-.8763587-.2937859-.8763587-.8813665v-11.43726705c0-.58758058.29211665-.88136646.8763587-.88136646h4.6263587c1.100549 0 1.9768989.25962473 2.6290761.77888199.7608733.62857457 1.1413043 1.46210662 1.1413043 2.50062112 0 1.5031131-.6929278 2.5279476-2.0788043 3.0745342.7880474.2186346 1.3654873.5534139 1.7323369 1.0043478.557068.6695686.8355979 1.4006171.8355979 2.1931677zm-1.9769022-6.2720497c0-.6012453-.2173891-1.0795013-.6521739-1.4347826-.2989146-.2322993-.7133126-.34844722-1.2432065-.34844722h-4.03532613c-.23097942 0-.34646739.10931572-.34646739.32795032v3.8124223h3.28125002c.8016344 0 1.4809754-.1844701 2.0380435-.5534161.6385901-.4372693.9578804-1.0385055.9578804-1.8037267zm.4891304 6.2310559c0-.6422392-.29891-1.2093143-.8967391-1.7012422-.570655-.450934-1.4334181-.6763976-2.5883152-.6763976h-3.28125002v4.2633541c0 .2186346.11548797.3279503.34646739.3279503h3.30163043c.8423955 0 1.5353234-.1708058 2.0788043-.5124224.6929383-.4236046 1.0394022-.9906796 1.0394022-1.7012422z"/><path d="m24.7826087 16.7444206c0 .4763972-.3057035.7145923-.9171196.7145923h-5.9918478c.0679351.8111628.3396715 1.4678086.8152174 1.9699571.5027199.5407752 1.1548873.8111588 1.9565217.8111588.6385902 0 1.1752696-.1866935 1.6100544-.5600859.2581534-.2188852.5570635-.6115851.8967391-1.1781116.1358703-.2317608.3532594-.3476395.6521739-.3476395.1902184 0 .3600536.0836902.5095109.251073.1630443.1545072.2445652.3412006.2445652.5600858 0 .3605169-.2581496.8304692-.7744565 1.4098713-.7608734.8497896-1.8206454 1.2746781-3.1793478 1.2746781-1.3451155 0-2.4116809-.457077-3.1997283-1.3712446-.7336993-.8497897-1.1005435-1.9248862-1.1005435-3.2253219 0-1.1716797.4076046-2.2017123 1.2228261-3.0901288.8288085-.8755408 1.8546135-1.3133047 3.0774457-1.3133047 1.2500062 0 2.2690178.4248884 3.0570652 1.2746781.7472863.8111629 1.1209239 1.7510676 1.1209239 2.8197425zm-1.548913-.5793991c0-.5021485-.2513562-1.0042894-.7540761-1.5064378-.4211978-.4120192-1.0461915-.6180258-1.875-.6180258-.6521772 0-1.2092369.1995689-1.6711957.5987125-.4755458.386268-.7948361.8948466-.9578804 1.5257511h5.15625c.0815221.0128756.1154892.0128756.1019022 0z"/></g></svg>

<?xml version="1.0" encoding="UTF-8"?>
<svg width="30px" height="30px" viewBox="0 0 30 30" version="1.1" xmlns="http://www.w3.org/2000/svg" xmlns:xlink="http://www.w3.org/1999/xlink">
    <title>behance</title>
    <g id="behance" stroke="none" stroke-width="1" fill="none" fill-rule="evenodd">
        <path d="M15.1358696,18.0542702 C15.1358696,19.120114 14.6942979,19.9946394 13.8111413,20.6778727 C12.9279847,21.3611059 11.6440302,21.7027174 9.95923913,21.7027174 L6.25,21.7027174 C5.66575795,21.7027174 5.3736413,21.4089315 5.3736413,20.8213509 L5.3736413,9.38408385 C5.3736413,8.79650327 5.66575795,8.50271739 6.25,8.50271739 L10.8763587,8.50271739 C11.9769077,8.50271739 12.8532576,8.76234212 13.5054348,9.28159938 C14.2663081,9.91017395 14.6467391,10.743706 14.6467391,11.7822205 C14.6467391,13.2853336 13.9538113,14.3101681 12.5679348,14.8567547 C13.3559822,15.0753893 13.9334221,15.4101686 14.3002717,15.8611025 C14.8573397,16.5306711 15.1358696,17.2617196 15.1358696,18.0542702 L15.1358696,18.0542702 Z M13.1589674,11.7822205 C13.1589674,11.1809752 12.9415783,10.7027192 12.5067935,10.3474379 C12.2078789,10.1151386 11.7934809,9.99899068 11.263587,9.99899068 L7.22826087,9.99899068 C6.99728145,9.99899068 6.88179348,10.1083064 6.88179348,10.326941 L6.88179348,14.1393633 L10.1630435,14.1393633 C10.9646779,14.1393633 11.6440189,13.9548932 12.201087,13.5859472 C12.8396771,13.1486779 13.1589674,12.5474417 13.1589674,11.7822205 Z M13.6480978,18.0132764 C13.6480978,17.3710372 13.3491878,16.8039621 12.7513587,16.3120342 C12.1807037,15.8611002 11.3179406,15.6356366 10.1630435,15.6356366 L6.88179348,15.6356366 L6.88179348,19.8989907 C6.88179348,20.1176253 6.99728145,20.226941 7.22826087,20.226941 L10.5298913,20.226941 C11.3722868,20.226941 12.0652147,20.0561352 12.6086956,19.7145186 C13.3016339,19.290914 13.6480978,18.723839 13.6480978,18.0132764 Z" id="形状" fill="#FFFFFF"></path>
        <path d="M24.7826087,16.7444206 C24.7826087,17.2208178 24.4769052,17.4590129 23.8654891,17.4590129 L17.8736413,17.4590129 C17.9415764,18.2701757 18.2133128,18.9268215 18.6888587,19.42897 C19.1915786,19.9697452 19.843746,20.2401288 20.6453804,20.2401288 C21.2839706,20.2401288 21.82065,20.0534353 22.2554348,19.6800429 C22.5135882,19.4611577 22.8124983,19.0684578 23.1521739,18.5019313 C23.2880442,18.2701705 23.5054333,18.1542918 23.8043478,18.1542918 C23.9945662,18.1542918 24.1644014,18.237982 24.3138587,18.4053648 C24.476903,18.559872 24.5584239,18.7465654 24.5584239,18.9654506 C24.5584239,19.3259675 24.3002743,19.7959198 23.7839674,20.3753219 C23.023094,21.2251115 21.963322,21.65 20.6046196,21.65 C19.2595041,21.65 18.1929387,21.192923 17.4048913,20.2787554 C16.671192,19.4289657 16.3043478,18.3538692 16.3043478,17.0534335 C16.3043478,15.8817538 16.7119524,14.8517212 17.5271739,13.9633047 C18.3559824,13.0877639 19.3817874,12.65 20.6046196,12.65 C21.8546258,12.65 22.8736374,13.0748884 23.6616848,13.9246781 C24.4089711,14.735841 24.7826087,15.6757457 24.7826087,16.7444206 Z M23.2336957,16.1650215 C23.2336957,15.662873 22.9823395,15.1607321 22.4796196,14.6585837 C22.0584218,14.2465645 21.4334281,14.0405579 20.6046196,14.0405579 C19.9524424,14.0405579 19.3953827,14.2401268 18.9334239,14.6392704 C18.4578781,15.0255384 18.1385878,15.534117 17.9755435,16.1650215 L23.1317935,16.1650215 C23.2133156,16.1778971 23.2472827,16.1778971 23.2336957,16.1650215 Z" id="形状" fill="#FFFFFF"></path>
    </g>
</svg>
